icons/md-image.svg

<!-- Generated by IcoMoon.io -->
<svg version="1.1" xmlns="http://www.w3.org/2000/svg" width="32" height="32" viewBox="0 0 32 32">
<path d="M30.934 3.2h-29.868c-0.587 0-1.066 0.408-1.066 0.914v23.773c0 0.502 0.479 0.914 1.066 0.914h29.867c0.59 0 1.066-0.412 1.066-0.914v-23.773c0.001-0.506-0.476-0.914-1.065-0.914zM30.4 27.199h-28.8v-22.399h28.8v22.399z"></path>
<path d="M26.52 25.066h1.918l-6.151-10.796-2.451 4.302-10.652-10.348-5.622 16.842h12.573z"></path>
<path d="M28.267 9.6c0 1.473-1.194 2.667-2.667 2.667s-2.667-1.194-2.667-2.667c0-1.473 1.194-2.667 2.667-2.667s2.667 1.194 2.667 2.667z"></path>
</svg>

<?xml version="1.0" encoding="utf-8"?>
<!-- Generator: Adobe Illustrator 16.0.0, SVG Export Plug-In . SVG Version: 6.00 Build 0)  -->
<!DOCTYPE svg PUBLIC "-//W3C//DTD SVG 1.1//EN" "http://www.w3.org/Graphics/SVG/1.1/DTD/svg11.dtd">
<svg version="1.1" id="Layer_1" xmlns="http://www.w3.org/2000/svg" xmlns:xlink="http://www.w3.org/1999/xlink" x="0px" y="0px"
	 width="32px" height="32px" viewBox="0 0 32 32" enable-background="new 0 0 32 32" xml:space="preserve">
<g>
	<path d="M30.934,3.2H1.066C0.479,3.2,0,3.608,0,4.114v23.773c0,0.502,0.479,0.914,1.066,0.914h29.867
		c0.59,0,1.066-0.412,1.066-0.914V4.114C32,3.608,31.523,3.2,30.934,3.2z M30.4,27.199H1.6V4.8H30.4V27.199z"/>
	<polygon points="26.52,25.066 28.438,25.066 22.287,14.27 19.836,18.572 9.184,8.224 3.562,25.066 16.135,25.066 	"/>
	<circle cx="25.6" cy="9.6" r="2.667"/>
</g>
</svg>
